src/assets/growth.svg

<svg fill="none" height="150" viewBox="0 0 150 150" width="150" xmlns="http://www.w3.org/2000/svg"><path d="m128.046 21.9539c-14.188-14.16027-33.0131-21.9539-53.046-21.9539s-38.8584 7.79363-53.0461 21.9539c-14.16027 14.1877-21.9539 33.0132-21.9539 53.0461s7.79363 38.858 21.9539 53.046c14.1603 14.16 33.0132 21.954 53.0461 21.954s38.858-7.794 53.046-21.954c14.16-14.16 21.954-33.0131 21.954-53.046s-7.794-38.8584-21.954-53.0461z" fill="#3cc5d1"/><g fill="#000"><path d="m97.6951 26.9758v13.5017h-16.8771v13.5016h-16.877v23.8749c-3.9792-2.3052-8.5895-3.6224-13.5017-3.6224-14.9012 0-27.0033 12.1295-27.0033 27.0034 0 14.874 12.1296 27.003 27.0033 27.003 16.1361 0 28.842-14.188 26.8112-30.3785h44.0995v-70.8837zm-57.629 91.6852v-.741c0-5.598 4.5554-10.126 10.1262-10.126s10.1263 4.555 10.1263 10.126v1.015c-6.1746 3.458-13.9133 3.513-20.2525-.274zm6.7508-20.9936c0-1.8661 1.5094-3.3754 3.3754-3.3754 1.8661 0 3.3755 1.5093 3.3755 3.3754s-1.5094 3.3756-3.3755 3.3756c-1.8386 0-3.3754-1.5095-3.3754-3.3756zm19.7037 15.8896c-1.1801-4.364-4.0615-8.069-7.9034-10.264 1.0702-1.619 1.7014-3.54 1.7014-5.6256 0-5.5983-4.5555-10.1263-10.1263-10.1263s-10.1262 4.528-10.1262 10.1263c0 2.0856.6312 4.0336 1.7014 5.6256-3.7047 2.141-6.5312 5.653-7.7662 9.824-2.4149-3.348-3.8419-7.436-3.8419-11.855 0-11.1687 9.0834-20.2521 20.2525-20.2521 11.169 0 20.2525 9.0834 20.2525 20.2521.0274 4.611-1.5368 8.892-4.1438 12.295zm14.2974-22.4209h-5.3512c-1.0703-2.6345-2.6894-5.3513-4.775-7.7388v-22.6399h10.1262zm16.8771 0h-10.1262c0-2.2777 0-41.8222 0-43.8804h10.1262zm16.8769 0h-10.126c0-1.921 0-54.4731 0-57.4094h10.126z"/><path d="m49.2317 53.5674 9.8519-16.438h13.2272l14.517-18.1394-5.2689-4.2261-12.4863 15.6147h-13.8035l-10.4007 17.3162-12.157 3.0461 1.6466 6.5587z"/></g></svg>

<svg width="150" height="150" viewBox="0 0 150 150" fill="none" xmlns="http://www.w3.org/2000/svg">
<path d="M128.046 21.9539C113.858 7.79363 95.0329 0 75 0C54.9671 0 36.1416 7.79363 21.9539 21.9539C7.79363 36.1416 0 54.9671 0 75C0 95.0329 7.79363 113.858 21.9539 128.046C36.1142 142.206 54.9671 150 75 150C95.0329 150 113.858 142.206 128.046 128.046C142.206 113.886 150 95.0329 150 75C150 54.9671 142.206 36.1416 128.046 21.9539Z" fill="#3CC5D1"/>
<path d="M97.6951 26.9758V40.4775H80.818V53.9791H63.941V77.854C59.9618 75.5488 55.3515 74.2316 50.4393 74.2316C35.5381 74.2316 23.436 86.3611 23.436 101.235C23.436 116.109 35.5656 128.238 50.4393 128.238C66.5754 128.238 79.2813 114.05 77.2505 97.8595H121.35V26.9758H97.6951ZM40.0661 118.661V117.92C40.0661 112.322 44.6215 107.794 50.1923 107.794C55.7631 107.794 60.3186 112.349 60.3186 117.92V118.935C54.144 122.393 46.4053 122.448 40.0661 118.661ZM46.8169 97.6674C46.8169 95.8013 48.3263 94.292 50.1923 94.292C52.0584 94.292 53.5678 95.8013 53.5678 97.6674C53.5678 99.5335 52.0584 101.043 50.1923 101.043C48.3537 101.043 46.8169 99.5335 46.8169 97.6674ZM66.5206 113.557C65.3405 109.193 62.4591 105.488 58.6172 103.293C59.6874 101.674 60.3186 99.753 60.3186 97.6674C60.3186 92.0691 55.7631 87.5411 50.1923 87.5411C44.6215 87.5411 40.0661 92.0691 40.0661 97.6674C40.0661 99.753 40.6973 101.701 41.7675 103.293C38.0628 105.434 35.2363 108.946 34.0013 113.117C31.5864 109.769 30.1594 105.681 30.1594 101.262C30.1594 90.0933 39.2428 81.0099 50.4119 81.0099C61.5809 81.0099 70.6644 90.0933 70.6644 101.262C70.6918 105.873 69.1276 110.154 66.5206 113.557ZM80.818 91.1361H75.4668C74.3965 88.5016 72.7774 85.7848 70.6918 83.3973V60.7574H80.818V91.1361ZM97.6951 91.1361H87.5689C87.5689 88.8584 87.5689 49.3139 87.5689 47.2557H97.6951V91.1361ZM114.572 91.1361H104.446C104.446 89.2151 104.446 36.663 104.446 33.7267H114.572V91.1361Z" fill="black"/>
<path d="M49.2317 53.5674L59.0836 37.1294H72.3108L86.8278 18.99L81.5589 14.7639L69.0726 30.3786H55.2691L44.8684 47.6948L32.7114 50.7409L34.358 57.2996L49.2317 53.5674Z" fill="black"/>
</svg>
